X:1
T:Title
L:1/8
M:12/8
K:F
V:1 treble nm="Grand Piano"
V:1
 z6 z2 A, D2 E | F6- F2 E G2 F | E6- E2 E ^C2 D | E6- E2 D F2 E | D6- D2 A, D2 E | F6- F2 E G2 F | %6
 E6- E2 E ^C2 D | E6- E2 D F2 E | D6- D2 D G2 ^F | G6- G2 A B2 A | G6- G2 G A2 _A | A6- A2 B c2 B | %12
 A6- A2 A c2 =B | c6- c2 c d2 c | B6- B2 G B2 A | B6- B2 A c2 B | A6- A2 A A2 B | A6- A2 G F2 E | %18
 D6- D2 z z3 |] %19

